data/sedan-sc.svg

<svg width="58.422" height="16.8" viewBox="0 0 58.422 16.8" xmlns="http://www.w3.org/2000/svg"><path transform="translate(0 13.3) scale(.014 -.014)" d="m490 171q0-55-33.5-96.5t-88-64.5-117.5-23q-43 0-80.5 10t-60.5 20l8-20q3-7-5-12t-17-5q-8 0-11 5-8 22-16.5 54.5t-14.5 68-8 65.5q0 5 5 7.5t12 2.5q5 0 10-1.5t6-5.5q6-19 19.5-44.5t35.5-50 53.5-40.5 71.5-16q62 0 94 33.5t32 73.5q0 48-22 81t-57.5 57-74.5 46-74.5 47-57.5 60.5-22 86.5q0 48 29.5 87.5t81.5 63 119 23.5q41 0 68.5-7.5t27.5-7.5q-1 3-2.5 12t-1.5 11q-1 5 4 7.5t11 2.5q12 0 15-8 12-42 19-85t8-74q-1-3-7.5-4.5t-13.5-1.5q-9 0-12 3-7 25-20 51t-39 44.5-72 18.5-71-16.5-34.5-41-9.5-48.5q0-40 22.5-68t58.5-50 75.5-44 75.5-49 58.5-65 22.5-93z"/><path transform="translate(7.532 13.3) scale(.014 -.014)" d="m387 250q-52-4-125-3t-169-5q0-47 17-79.5t44-52.5 58.5-29 60.5-9q41 0 66.5 8t40 18 22.5 18 15 8q11 0 11-12 0-6-9.5-26t-30-43-55.5-39.5-86-16.5q-60 0-107 31.5t-74 81.5-27 105q0 57 20.5 102.5t54 77 73.5 48 80 16.5q43 0 77.5-21t55.5-58.5 21-89.5q0-16-7-22t-27-8zm-147 145q-30 0-60.5-13.5t-53-40.5-30.5-68q35 4 75 7t76 6 56 6q18 2 25.5 6t7.5 13q0 34-27.5 59t-68.5 25z"/><path transform="translate(14.056 13.3) scale(.014 -.014)" d="m484 146q0-34 2.5-53t11.5-27q8-6 21-6 9 0 18 1.5t16 1.5q3 0 5.5-5t2.5-10q0-13-6-15-43-7-69-18t-39.5-19.5-20.5-8.5q-11 0-16 14.5t-6.5 32.5-2.5 28h-2q-25-31-66.5-53t-99.5-22q-91 0-142.5 60t-51.5 157q0 68 31.5 123.5t84.5 89 116 33.5q55 0 83.5-15.5t44.5-28.5v178q0 43-4 63.5t-9.5 27-11.5 6.5h-45q-3 0-5.5 5.5t-2.5 10.5q0 3 1 8.5t5 5.5q54 0 88.5 14t54.5 22q15 0 15-12 0-14 0-50.5t-0.5-87.5-0.5-108 0-113zm-85 127q-7 80-40.5 110.5t-84.5 30.5q-49 0-79-30t-43-74.5-13-89.5q0-44 18-83.5t52-64 82-24.5q47 0 70.5 17t37.5 29z"/><path transform="translate(22.078 13.3) scale(.014 -.014)" d="m375 324q0-30-2.5-67.5t-5-73-2.5-60.5q0-39 12-53t32-14q23 0 30.5 10.5t14.5 10.5q10 0 10-10 0-16-13.5-34.5t-34.5-31-45-12.5q-40 0-58 32t-17 79h-3q-17-48-60-80.5t-98-32.5q-40 0-65 19t-25 56q0 59 66.5 108t179.5 83q1 13 1.5 23.5t0.5 16.5q0 50-19 87t-66 37q-36 0-62.5-22t-26.5-69q0-5 0-10.5t1-11.5q-4-5-11.5-7.5t-15.5-2.5q-17 0-33.5 11t-16.5 36q0 32 28 56.5t69 38.5 80 14q71 0 113-28.5t42-97.5zm-193-282q38 0 71.5 47t37.5 135q-60-22-93-44t-46.5-44.5-13.5-46.5q0-21 10.5-34t33.5-13z"/><path transform="translate(28.672 13.3) scale(.014 -.014)" d="m193 388q30 28 70 45t73 17q74 0 120-43.5t46-148.5v-140q0-38 3-57t8-25 10-6h49q4 0 6-6t2-11q0-4-1.5-8.5t-4.5-4.5q-27 0-43 0.5t-30.5 0.5-35.5 0q-43 0-65-1.5t-51-1.5q-3 0-5 5.5t-2 9.5q0 5 1.5 10t3.5 5h58q12 0 12 17v169q0 68-11.5 107.5t-39 56.5-75.5 17q-30 0-56-11.5t-41-28.5v-237q0-38 3-57t8-25 10-6h49q4 0 6-6t2-11q0-4-1.5-8.5t-4.5-4.5q-27 0-43.5 0.5t-30.5 0.5-35 0q-43 0-65-1.5t-51-1.5q-3 0-5 5.5t-2 9.5q0 5 1.5 10t3.5 5h58q12 0 12 17v235q0 43-4 63.5t-10.5 27-13.5 6.5h-20q-3 0-5.5 5.5t-2.5 10.5q0 3 1 8.5t5 5.5q23 0 43 10.5t35.5 25 26.5 25 15 10.5q14 0 14-12 0-18-0.5-29.5t-1-21.5-0.5-27z"/><path transform="translate(40.712 13.3) scale(.014 -.014)" d="m490 171q0-55-33.5-96.5t-88-64.5-117.5-23q-43 0-80.5 10t-60.5 20l8-20q3-7-5-12t-17-5q-8 0-11 5-8 22-16.5 54.5t-14.5 68-8 65.5q0 5 5 7.5t12 2.5q5 0 10-1.5t6-5.5q6-19 19.5-44.5t35.5-50 53.5-40.5 71.5-16q62 0 94 33.5t32 73.5q0 48-22 81t-57.5 57-74.5 46-74.5 47-57.5 60.5-22 86.5q0 48 29.5 87.5t81.5 63 119 23.5q41 0 68.5-7.5t27.5-7.5q-1 3-2.5 12t-1.5 11q-1 5 4 7.5t11 2.5q12 0 15-8 12-42 19-85t8-74q-1-3-7.5-4.5t-13.5-1.5q-9 0-12 3-7 25-20 51t-39 44.5-72 18.5-71-16.5-34.5-41-9.5-48.5q0-40 22.5-68t58.5-50 75.5-44 75.5-49 58.5-65 22.5-93z"/><path transform="translate(48.244 13.3) scale(.014 -.014)" d="m46 313q0 90 34.5 159t93 116.5 132 71.5 152.5 24q47 0 88-11t73-28v23q0 5 5 7t11 2q13 0 13-9 0-37 2.5-75t7.5-73q1-5-4-7.5t-12-2.5q-6 0-11 2.5t-6 7.5l-8 47q-41 38-86 55t-95 17q-71 0-132-34t-97.5-101-36.5-168q0-102 39-169.5t103-101 140-33.5q98 0 186 60l6 47q2 11 18 11 6 0 11-3t4-8q-5-26-6.5-62.5t-1.5-74.5q0-8-15-8-6 0-11 2t-5 6v24q-97-39-192-39-82 0-154.5 21t-128 62.5-86.5 102.5-31 140z"/></svg>

<?xml version="1.0" encoding="utf-8" ?>
<svg baseProfile="tiny" height="100%" version="1.2" width="100%" xmlns="http://www.w3.org/2000/svg" xmlns:ev="http://www.w3.org/2001/xml-events" xmlns:xlink="http://www.w3.org/1999/xlink"><defs /><g><path d="M490 171Q490 116 456.5 74.5Q423 33 368.5 10.0Q314 -13 251 -13Q208 -13 170.5 -3.0Q133 7 110 17L118 -3Q121 -10 113.0 -15.0Q105 -20 96 -20Q88 -20 85 -15Q77 7 68.5 39.5Q60 72 54.0 107.5Q48 143 46 173Q46 178 51.0 180.5Q56 183 63 183Q68 183 73.0 181.5Q78 180 79 176Q85 157 98.5 131.5Q112 106 134.0 81.5Q156 57 187.5 41.0Q219 25 259 25Q321 25 353.0 58.5Q385 92 385 132Q385 180 363.0 213.0Q341 246 305.5 270.0Q270 294 231.0 316.0Q192 338 156.5 363.0Q121 388 99.0 423.5Q77 459 77 510Q77 558 106.5 597.5Q136 637 188.0 660.5Q240 684 307 684Q348 684 375.5 676.5Q403 669 403 669Q402 672 400.5 681.0Q399 690 399 692Q398 697 403.0 699.5Q408 702 414 702Q426 702 429 694Q441 652 448.0 609.0Q455 566 456 535Q455 532 448.5 530.5Q442 529 435 529Q426 529 423 532Q416 557 403.0 583.0Q390 609 364.0 627.5Q338 646 292 646Q246 646 221.0 629.5Q196 613 186.5 588.5Q177 564 177 540Q177 500 199.5 472.0Q222 444 258.0 422.0Q294 400 333.5 378.0Q373 356 409.0 329.0Q445 302 467.5 264.0Q490 226 490 171Z" transform="translate(0.0, 72) scale(0.072, -0.072)" /><path d="M387 250Q335 246 262.0 247.0Q189 248 93 242Q93 195 110.0 162.5Q127 130 154.0 110.0Q181 90 212.5 81.0Q244 72 273 72Q314 72 339.5 80.0Q365 88 379.5 98.0Q394 108 402.0 116.0Q410 124 417 124Q428 124 428 112Q428 106 418.5 86.0Q409 66 388.5 43.0Q368 20 333.0 3.5Q298 -13 247 -13Q187 -13 140.0 18.5Q93 50 66.0 100.0Q39 150 39 205Q39 262 59.5 307.5Q80 353 113.5 384.5Q147 416 187.0 432.5Q227 449 267 449Q310 449 344.5 428.0Q379 407 400.0 369.5Q421 332 421 280Q421 264 414.0 258.0Q407 252 387 250ZM240 395Q210 395 179.5 381.5Q149 368 126.5 341.0Q104 314 96 273Q131 277 171.0 280.0Q211 283 247.0 286.0Q283 289 303 292Q321 294 328.5 298.0Q336 302 336 311Q336 345 308.5 370.0Q281 395 240 395Z" transform="translate(38.736, 72) scale(0.072, -0.072)" /><path d="M484 146Q484 112 486.5 93.0Q489 74 498 66Q506 60 519 60Q528 60 537.0 61.5Q546 63 553 63Q556 63 558.5 58.0Q561 53 561 48Q561 35 555 33Q512 26 486.0 15.0Q460 4 446.5 -4.5Q433 -13 426 -13Q415 -13 410.0 1.5Q405 16 403.5 34.0Q402 52 401 62H399Q374 31 332.5 9.0Q291 -13 233 -13Q142 -13 90.5 47.0Q39 107 39 204Q39 272 70.5 327.5Q102 383 155.0 416.5Q208 450 271 450Q326 450 354.5 434.5Q383 419 399 406V584Q399 627 395.0 647.5Q391 668 385.5 674.5Q380 681 374 681H329Q326 681 323.5 686.5Q321 692 321 697Q321 700 322.0 705.5Q323 711 327 711Q381 711 415.5 725.0Q450 739 470 747Q485 747 485 735Q485 721 485.0 684.5Q485 648 484.5 597.0Q484 546 484.0 489.0Q484 432 484 376ZM399 273Q392 353 358.5 383.5Q325 414 274 414Q225 414 195.0 384.0Q165 354 152.0 309.5Q139 265 139 220Q139 176 157.0 136.5Q175 97 209.0 72.5Q243 48 291 48Q338 48 361.5 65.0Q385 82 399 94Z" transform="translate(72.288, 72) scale(0.072, -0.072)" /><path d="M375 324Q375 294 372.5 256.5Q370 219 367.5 183.5Q365 148 365 123Q365 84 377.0 70.0Q389 56 409 56Q432 56 439.5 66.5Q447 77 454 77Q464 77 464 67Q464 51 450.5 32.5Q437 14 416.0 1.5Q395 -11 371 -11Q331 -11 313.0 21.0Q295 53 296 100H293Q276 52 233.0 19.5Q190 -13 135 -13Q95 -13 70.0 6.0Q45 25 45 62Q45 121 111.5 170.0Q178 219 291 253Q292 266 292.5 276.5Q293 287 293 293Q293 343 274.0 380.0Q255 417 208 417Q172 417 145.5 395.0Q119 373 119 326Q119 321 119.0 315.5Q119 310 120 304Q116 299 108.5 296.5Q101 294 93 294Q76 294 59.5 305.0Q43 316 43 341Q43 373 71.0 397.5Q99 422 140.0 436.0Q181 450 220 450Q291 450 333.0 421.5Q375 393 375 324ZM182 42Q220 42 253.5 89.0Q287 136 291 224Q231 202 198.0 180.0Q165 158 151.5 135.5Q138 113 138 89Q138 68 148.5 55.0Q159 42 182 42Z" transform="translate(113.544, 72) scale(0.072, -0.072)" /><path d="M193 388Q223 416 263.0 433.0Q303 450 336 450Q410 450 456.0 406.5Q502 363 502 258V118Q502 80 505.0 61.0Q508 42 513.0 36.0Q518 30 523 30H572Q576 30 578.0 24.0Q580 18 580 13Q580 9 578.5 4.5Q577 0 574 0Q547 0 531.0 0.5Q515 1 500.5 1.0Q486 1 465 1Q422 1 400.0 -0.5Q378 -2 349 -2Q346 -2 344.0 3.5Q342 9 342 13Q342 18 343.5 23.0Q345 28 347 28H405Q417 28 417 45V214Q417 282 405.5 321.5Q394 361 366.5 378.0Q339 395 291 395Q261 395 235.0 383.5Q209 372 194 355V118Q194 80 197.0 61.0Q200 42 205.0 36.0Q210 30 215 30H264Q268 30 270.0 24.0Q272 18 272 13Q272 9 270.5 4.5Q269 0 266 0Q239 0 222.5 0.5Q206 1 192.0 1.0Q178 1 157 1Q114 1 92.0 -0.5Q70 -2 41 -2Q38 -2 36.0 3.5Q34 9 34 13Q34 18 35.5 23.0Q37 28 39 28H97Q109 28 109 45V280Q109 323 105.0 343.5Q101 364 94.5 370.5Q88 377 81 377H61Q58 377 55.5 382.5Q53 388 53 393Q53 396 54.0 401.5Q55 407 59 407Q82 407 102.0 417.5Q122 428 137.5 442.5Q153 457 164.0 467.5Q175 478 179 478Q193 478 193 466Q193 448 192.5 436.5Q192 425 191.5 415.0Q191 405 191 388Z" transform="translate(147.456, 72) scale(0.072, -0.072)" /><path d="M490 171Q490 116 456.5 74.5Q423 33 368.5 10.0Q314 -13 251 -13Q208 -13 170.5 -3.0Q133 7 110 17L118 -3Q121 -10 113.0 -15.0Q105 -20 96 -20Q88 -20 85 -15Q77 7 68.5 39.5Q60 72 54.0 107.5Q48 143 46 173Q46 178 51.0 180.5Q56 183 63 183Q68 183 73.0 181.5Q78 180 79 176Q85 157 98.5 131.5Q112 106 134.0 81.5Q156 57 187.5 41.0Q219 25 259 25Q321 25 353.0 58.5Q385 92 385 132Q385 180 363.0 213.0Q341 246 305.5 270.0Q270 294 231.0 316.0Q192 338 156.5 363.0Q121 388 99.0 423.5Q77 459 77 510Q77 558 106.5 597.5Q136 637 188.0 660.5Q240 684 307 684Q348 684 375.5 676.5Q403 669 403 669Q402 672 400.5 681.0Q399 690 399 692Q398 697 403.0 699.5Q408 702 414 702Q426 702 429 694Q441 652 448.0 609.0Q455 566 456 535Q455 532 448.5 530.5Q442 529 435 529Q426 529 423 532Q416 557 403.0 583.0Q390 609 364.0 627.5Q338 646 292 646Q246 646 221.0 629.5Q196 613 186.5 588.5Q177 564 177 540Q177 500 199.5 472.0Q222 444 258.0 422.0Q294 400 333.5 378.0Q373 356 409.0 329.0Q445 302 467.5 264.0Q490 226 490 171Z" transform="translate(209.37599999999998, 72) scale(0.072, -0.072)" /><path d="M46 313Q46 403 80.5 472.0Q115 541 173.5 588.5Q232 636 305.5 660.0Q379 684 458 684Q505 684 546.0 673.0Q587 662 619 645V668Q619 673 624.0 675.0Q629 677 635 677Q648 677 648 668Q648 631 650.5 593.0Q653 555 658 520Q659 515 654.0 512.5Q649 510 642 510Q636 510 631.0 512.5Q626 515 625 520L617 567Q576 605 531.0 622.0Q486 639 436 639Q365 639 304.0 605.0Q243 571 206.5 504.0Q170 437 170 336Q170 234 209.0 166.5Q248 99 312.0 65.5Q376 32 452 32Q550 32 638 92L644 139Q646 150 662 150Q668 150 673.0 147.0Q678 144 677 139Q672 113 670.5 76.5Q669 40 669 2Q669 -6 654 -6Q648 -6 643.0 -4.0Q638 -2 638 2V26Q541 -13 446 -13Q364 -13 291.5 8.0Q219 29 163.5 70.5Q108 112 77.0 173.0Q46 234 46 313Z" transform="translate(248.11199999999997, 72) scale(0.072, -0.072)" /></g></svg>
